public/visuals/statamic-peak-logo.svg

<?xml version="1.0" encoding="UTF-8"?>
<svg width="700px" height="330.325444px" viewBox="0 0 700 330.325444" version="1.1" xmlns="http://www.w3.org/2000/svg" xmlns:xlink="http://www.w3.org/1999/xlink">
    <title>Peak logo</title>
    <g id="Peak-logo" stroke="none" stroke-width="1" fill="none" fill-rule="evenodd">
        <path d="M700,0 C683.76777,17.2096111 667.536577,36.014121 651.305991,55.2293139 L646.879482,60.4791135 L642.453001,65.7439393 L626.960513,84.2120884 L622.534135,89.4784701 L618.107774,94.7305172 C606.304167,108.712118 594.500726,122.483875 582.697285,135.590251 C605.238903,160.882842 627.780521,183.518252 650.322881,205.056011 L653.978406,208.539246 C655.806171,210.276298 657.633942,212.006689 659.461718,213.731249 L663.117279,217.172842 L666.772854,220.600364 L670.428446,224.015294 L674.084055,227.419108 L677.739681,230.813286 L681.395325,234.199304 L686.878828,239.266267 L690.534521,242.638353 C603.205568,258.224128 515.874722,257.941315 428.544106,254.341233 L421.911401,254.061634 C419.7005,253.966444 417.489598,253.869332 415.278698,253.770501 L408.645995,253.469054 L402.013295,253.158517 L395.380596,252.840111 L388.747899,252.515058 L378.798857,252.017689 L349.558986,250.524581 C337.377793,249.902555 319.106049,249.028266 294.743754,247.901712 L279.82905,279.432096 C270.651498,298.083163 263.769337,312.285048 259.182568,322.037752 C211.407064,323.088963 163.632489,324.637834 115.858843,326.247467 L72.8628127,327.700747 C48.9762684,328.504133 25.0899563,329.289942 1.20387648,330.003562 L0,330.325444 L1.76313439,307.360161 L3.52613981,284.243404 L5.28904605,261.015968 L11.7526678,175.561039 L13.5155046,152.356494 L14.6907659,136.951218 L16.4537349,113.970154 L18.216823,91.1775714 C18.4127294,88.6570443 18.6086386,86.140763 18.8045507,83.6289794 C20.8421116,83.2920569 22.8856919,82.9611508 24.9292723,82.6392695 C53.1029916,78.2111451 81.2737013,75.3984438 109.45043,73.7318807 C166.013472,70.3982075 222.574027,71.6340707 279.136617,73.9724267 L285.924138,74.2580994 C287.055393,74.3065196 288.186649,74.3553253 289.317906,74.4044888 L296.10546,74.7035412 L300.405427,66.7454861 C310.438409,48.1565106 320.469662,29.4040093 330.50322,10.0204363 C408.881325,9.14750075 487.25943,6.8845858 565.637535,4.36352074 L588.031279,3.63716966 L644.015639,1.79832525 L666.409384,1.06899984 C677.606256,0.706935617 688.803128,0.349502406 700,0 Z" id="Background-shape" fill="#FFFFFF"></path>
        <path d="M297.466305,181.213018 C304.275344,169.056755 311.090369,157.062535 317.899408,145.101324 C317.217008,145.050311 316.528621,144.999297 315.846221,144.948283 C308.600206,144.408138 301.357184,143.879997 294.111169,143.375861 C273.3219,141.926472 252.529638,140.660132 231.74037,139.792899 C230.776629,152.12621 229.812888,164.648571 228.846154,177.374988 C250.464479,178.20321 272.085798,179.472551 293.70113,180.954948 C294.955191,181.038971 296.212244,181.125994 297.466305,181.213018 M102.821355,140.193675 C101.338497,159.539401 99.8556391,179.435615 98.3727811,199.852071 C113.70063,198.554492 129.031468,197.686414 144.359317,197.175247 C183.622167,195.805076 187.84054,136.727415 148.816859,137.734627 C133.483032,138.15203 118.152193,138.941466 102.821355,140.193675 M690.534521,242.638353 C654.586769,209.49661 618.642027,175.92168 582.697285,135.590251 C621.796184,92.1753797 660.895082,41.4595178 700,0 C576.834407,3.84452646 453.668814,8.64868042 330.50322,10.0204363 C319.036297,32.1730912 307.572383,53.5014891 296.10546,74.7035412 C233.886113,71.9269387 171.669777,70.0648402 109.45043,73.7318807 C81.2737013,75.3984438 53.1029916,78.2111451 24.9292723,82.6392695 C22.8856919,82.9611508 20.8421116,83.2920569 18.8045507,83.6289794 C12.5353639,164.006055 6.26918678,248.988741 0,330.325444 C0.397279239,330.220156 0.800577861,330.111859 1.20387648,330.003562 C87.1937639,327.434528 173.186661,323.929933 259.182568,322.037752 C266.062722,307.408697 272.945886,293.230877 279.82905,279.432096 C250.042136,278.941753 220.249202,278.758251 190.462289,279.125256 C192.424607,250.66132 194.392945,223.157012 196.364293,196.624365 C185.926684,213.410326 167.576597,226.255496 141.804611,227.13691 C126.370914,227.678392 110.940228,228.532731 95.506531,229.757084 C94.2635286,247.036395 93.0235358,264.661654 91.783543,282.611802 C90.019864,282.71709 88.2561849,282.825387 86.4955156,282.9397 C77.9690604,283.484191 69.4426052,284.091854 60.91615,284.762691 C59.152471,284.904078 57.3918016,285.045465 55.6281226,285.186853 C59.8446999,225.714014 64.064287,168.566542 68.2808644,115.173349 C70.8722085,114.066318 135.514356,108.735723 150.749413,109.214032 C176.503341,108.645475 193.005478,120.461829 200.942033,136.637118 C201.664359,127.434922 202.392705,118.341022 203.112021,109.391518 C245.991091,110.248866 288.870162,113.028476 331.749233,115.988581 C343.583338,94.4465984 355.414434,72.7301379 367.25155,50.1653547 C378.474688,50.4511372 389.697827,50.715862 400.920966,50.9474962 C416.598447,95.4363083 432.275928,140.466603 447.95341,183.267794 C451.215915,141.459321 454.48143,97.7706999 457.743935,51.7537036 C468.03407,51.8228931 478.321194,51.8409425 488.611328,51.8018354 C486.826582,77.3929048 485.044844,102.192808 483.260098,126.246668 C505.778607,102.755348 528.297117,77.498193 550.815626,50.7609855 C563.597785,50.3669065 576.379943,49.8555063 589.165112,49.2117436 C589.144044,49.5606991 589.116957,49.9126628 589.092879,50.2646265 C562.833323,80.9335993 536.573768,110.315047 510.311202,137.19665 C534.454945,166.063689 558.592668,193.164893 582.739421,218.09415 C582.688256,218.695798 582.637091,219.297445 582.591946,219.899092 C569.88503,220.648143 557.178114,221.120436 544.474207,221.364103 C523.502679,198.706065 502.53115,174.375447 481.559622,148.940806 C479.693613,173.647453 477.824595,197.559927 475.958587,220.744407 C459.980136,220.208941 444.001685,219.447857 428.023235,218.548394 C424.218985,208.317381 420.417745,197.947989 416.610486,187.485342 C388.084633,185.596169 359.55577,183.294868 331.029916,181.122922 C325.555288,191.026037 320.08066,200.9833 314.612051,211.054876 C314.416421,211.042843 314.223801,211.03081 314.03118,211.018778 C314.025161,211.072926 314.022151,211.130082 314.016132,211.184231 C284.779992,209.274 255.537832,207.607437 226.298682,206.707974 C225.350629,219.535096 224.396557,232.566777 223.445494,245.809035 C379.13983,247.773413 534.840185,270.425435 690.534521,242.638353 M380.780633,85.9467456 C389.158467,110.116522 397.539326,134.434042 405.91716,158.431953 C385.553276,157.023858 365.189393,155.431837 344.822485,153.848861 C356.808534,131.500261 368.794584,109.106433 380.780633,85.9467456" fill="#FF0274"></path>
    </g>
</svg>

<?xml version="1.0" encoding="UTF-8"?><svg viewBox="0 0 700 330.325444" version="1.1" xmlns="http://www.w3.org/2000/svg" xmlns:xlink="http://www.w3.org/1999/xlink">
<g fill="none" fill-rule="evenodd"><path d="M582.697 135.595C621.797 92.18 660.895 41.463 700 0 576.834 3.845 453.669 8.652 330.503 10.024c-11.467 22.15-22.93 43.481-34.398 64.684-62.219-2.777-124.435-4.64-186.655-.972-28.176 1.666-56.347 4.48-84.52 8.907-2.044.32-4.088.65-6.125.99C12.535 164.008 6.269 248.993 0 330.33c.397-.105.8-.21 1.204-.319 85.99-2.569 171.986-6.074 257.979-7.966a2055.842 2055.842 0 0120.646-42.61c-.259-.002-.518-.002-.776-.005l14.717-31.56c132.255 5.592 264.51 18.378 396.765-5.225-35.945-33.142-71.893-66.72-107.838-107.05" fill="#FFF"/><path d="M297.466 181.213c6.81-12.156 13.624-24.15 20.433-36.112l-2.053-.153a4407.48 4407.48 0 00-21.735-1.572c-20.79-1.45-41.581-2.716-62.37-3.583a17410.74 17410.74 0 00-2.895 37.582c21.618.828 43.24 2.098 64.855 3.58 1.254.084 2.511.171 3.765.258m-194.645-41.02a14980.54 14980.54 0 00-4.448 59.66c15.328-1.299 30.658-2.167 45.986-2.678 39.263-1.37 43.482-60.448 4.458-59.44-15.334.417-30.665 1.206-45.996 2.459m587.714 102.444c-35.948-33.141-71.893-66.716-107.838-107.048C621.797 92.175 660.895 41.46 700 0 576.834 3.845 453.669 8.649 330.503 10.02c-11.467 22.153-22.93 43.481-34.398 64.684-62.219-2.777-124.435-4.64-186.655-.972-28.176 1.666-56.347 4.48-84.52 8.907-2.044.322-4.088.653-6.125.99C12.535 164.006 6.269 248.989 0 330.325l1.204-.321c85.99-2.57 171.983-6.074 257.979-7.966a2048.056 2048.056 0 0120.646-42.606c-29.787-.49-59.58-.674-89.367-.307a15527.66 15527.66 0 015.902-82.5c-10.437 16.785-28.787 29.63-54.56 30.512-15.433.541-30.864 1.396-46.297 2.62a18663.41 18663.41 0 00-3.723 52.855 1739.414 1739.414 0 00-30.867 2.15l-5.289.425c4.217-59.473 8.436-116.62 12.653-170.014 2.591-1.107 67.233-6.437 82.468-5.959 25.754-.569 42.256 11.248 50.193 27.423.722-9.202 1.45-18.296 2.17-27.245 42.88.857 85.758 3.636 128.637 6.597 11.834-21.542 23.665-43.259 35.503-65.824 11.223.286 22.446.55 33.669.782 15.677 44.49 31.355 89.52 47.032 132.32 3.263-41.808 6.528-85.496 9.79-131.513 10.291.069 20.578.087 30.868.048a16844.205 16844.205 0 01-5.35 74.445c22.518-23.492 45.036-48.749 67.555-75.486 12.782-.394 25.564-.905 38.35-1.55-.022.35-.049.702-.073 1.054-26.26 30.669-52.52 60.05-78.782 86.932 24.144 28.867 48.282 55.968 72.428 80.897-.05.602-.102 1.203-.147 1.805a960.76 960.76 0 01-38.118 1.465c-20.971-22.658-41.943-46.989-62.914-72.423-1.866 24.706-3.735 48.619-5.601 71.803-15.979-.535-31.957-1.296-47.936-2.196a4737.279 4737.279 0 01-11.413-31.063c-28.525-1.889-57.054-4.19-85.58-6.362a4501.985 4501.985 0 00-16.418 29.932l-.58-.036c-.007.054-.01.111-.016.165-29.236-1.91-58.478-3.577-87.717-4.476-.948 12.827-1.902 25.859-2.854 39.101 155.695 1.964 311.395 24.616 467.09-3.17M380.78 85.946c8.377 24.17 16.758 48.487 25.136 72.485-20.364-1.408-40.728-3-61.095-4.583 11.987-22.349 23.973-44.743 35.959-67.902" fill="#FF0274"/></g></svg>
